papirus/32x32/apps/screencloud.svg

<?xml version="1.0" encoding="UTF-8" standalone="no"?>
<!-- Created with Inkscape (http://www.inkscape.org/) -->

<svg
   xmlns:dc="http://purl.org/dc/elements/1.1/"
   xmlns:cc="http://creativecommons.org/ns#"
   xmlns:rdf="http://www.w3.org/1999/02/22-rdf-syntax-ns#"
   xmlns:svg="http://www.w3.org/2000/svg"
   xmlns="http://www.w3.org/2000/svg"
   xmlns:sodipodi="http://sodipodi.sourceforge.net/DTD/sodipodi-0.dtd"
   xmlns:inkscape="http://www.inkscape.org/namespaces/inkscape"
   id="svg2817"
   height="32"
   width="32"
   version="1.0"
   inkscape:version="0.91 r13725"
   sodipodi:docname="screencloud.svg">
  <defs
     id="defs13" />
  <sodipodi:namedview
     pagecolor="#3a3a3a"
     bordercolor="#666666"
     borderopacity="1"
     objecttolerance="10"
     gridtolerance="10"
     guidetolerance="10"
     inkscape:pageopacity="0"
     inkscape:pageshadow="2"
     inkscape:window-width="1600"
     inkscape:window-height="849"
     id="namedview11"
     showgrid="false"
     inkscape:zoom="1"
     inkscape:cx="13.174455"
     inkscape:cy="10.695844"
     inkscape:window-x="0"
     inkscape:window-y="0"
     inkscape:window-maximized="1"
     inkscape:current-layer="svg2817"
     showborder="false" />
  <metadata
     id="metadata57">
    <rdf:RDF>
      <cc:Work
         rdf:about="">
        <dc:format>image/svg+xml</dc:format>
        <dc:type
           rdf:resource="http://purl.org/dc/dcmitype/StillImage" />
        <dc:title></dc:title>
      </cc:Work>
    </rdf:RDF>
  </metadata>
  <path
     style="opacity:1;fill:#569cde;fill-opacity:1;stroke:none;stroke-width:2;stroke-linecap:round;stroke-linejoin:round;stroke-miterlimit:4;stroke-dasharray:none;stroke-opacity:1"
     d="M 13.954545,4 A 10.227273,10 0 0 0 3.7272727,14 10.227273,10 0 0 0 4.0695135,16.544271 C 2.2511598,17.41747 1,19.256896 1,21.401041 l 0,1.197917 C 1,25.590886 3.4305247,28 6.4492187,28 L 25.550781,28 C 28.569476,28 31,25.590886 31,22.598958 l 0,-1.197917 c 0,-2.267259 -1.396808,-4.196961 -3.386453,-5 A 6.1363636,5.9999999 0 0 0 28.954545,12.666666 6.1363636,5.9999999 0 0 0 22.818182,6.6666666 6.1363636,5.9999999 0 0 0 21.141602,6.8971353 10.227273,10 0 0 0 13.954545,4 Z"
     id="rect4141"
     inkscape:connector-curvature="0" />
  <path
     id="path4326"
     d="m 16,10 a 8.0000001,8 0 0 0 -8,8 8.0000001,8 0 0 0 8,8 8.0000001,8 0 0 0 8,-8 8.0000001,8 0 0 0 -8,-8 z m 0,2 a 6,5.9999999 0 0 1 6,6 6,5.9999999 0 0 1 -6,6 6,5.9999999 0 0 1 -6,-6 6,5.9999999 0 0 1 6,-6 z"
     style="opacity:0.2;fill:#000000;fill-opacity:1;stroke:none;stroke-width:2;stroke-linecap:round;stroke-linejoin:round;stroke-miterlimit:4;stroke-dasharray:none;stroke-opacity:1"
     inkscape:connector-curvature="0" />
  <path
     style="opacity:1;fill:#aaceee;fill-opacity:1;stroke:none;stroke-width:2;stroke-linecap:round;stroke-linejoin:round;stroke-miterlimit:4;stroke-dasharray:none;stroke-opacity:1"
     d="M 16 9 A 8.0000001 8 0 0 0 8 17 A 8.0000001 8 0 0 0 16 25 A 8.0000001 8 0 0 0 24 17 A 8.0000001 8 0 0 0 16 9 z M 16 11 A 6 5.9999999 0 0 1 22 17 A 6 5.9999999 0 0 1 16 23 A 6 5.9999999 0 0 1 10 17 A 6 5.9999999 0 0 1 16 11 z "
     id="path4313" />
  <path
     id="path4328"
     d="m 16,14 a 4.0000001,4.0000001 0 0 0 -4,4 4.0000001,4.0000001 0 0 0 4,4 4.0000001,4.0000001 0 0 0 4,-4 4.0000001,4.0000001 0 0 0 -4,-4 z"
     style="opacity:0.2;fill:#000000;fill-opacity:1;stroke:none;stroke-width:2;stroke-linecap:round;stroke-linejoin:round;stroke-miterlimit:4;stroke-dasharray:none;stroke-opacity:1"
     inkscape:connector-curvature="0" />
  <path
     inkscape:connector-curvature="0"
     style="opacity:1;fill:#ffffff;fill-opacity:1;stroke:none;stroke-width:2;stroke-linecap:round;stroke-linejoin:round;stroke-miterlimit:4;stroke-dasharray:none;stroke-opacity:1"
     d="m 16,13 a 4.0000001,4.0000001 0 0 0 -4,4 4.0000001,4.0000001 0 0 0 4,4 4.0000001,4.0000001 0 0 0 4,-4 4.0000001,4.0000001 0 0 0 -4,-4 z"
     id="path4139" />
  <circle
     r="1.5"
     cy="9.5"
     cx="9.5"
     id="circle4330"
     style="opacity:0.2;fill:#000000;fill-opacity:1;stroke:none;stroke-width:2;stroke-linecap:round;stroke-linejoin:round;stroke-miterlimit:4;stroke-dasharray:none;stroke-opacity:1" />
  <circle
     style="opacity:1;fill:#ffffff;fill-opacity:1;stroke:none;stroke-width:2;stroke-linecap:round;stroke-linejoin:round;stroke-miterlimit:4;stroke-dasharray:none;stroke-opacity:1"
     id="path4161"
     cx="9.5"
     cy="8.5"
     r="1.5" />
  <path
     style="opacity:0.2;fill:#ffffff;fill-opacity:1;stroke:none;stroke-width:2;stroke-linecap:round;stroke-linejoin:round;stroke-miterlimit:4;stroke-dasharray:none;stroke-opacity:1"
     d="M 13.955078 4 A 10.227273 10 0 0 0 3.7265625 14 A 10.227273 10 0 0 0 3.7480469 14.396484 A 10.227273 10 0 0 1 13.955078 5 A 10.227273 10 0 0 1 21.142578 7.8964844 A 6.1363636 5.9999999 0 0 1 22.818359 7.6660156 A 6.1363636 5.9999999 0 0 1 28.929688 13.166016 A 6.1363636 5.9999999 0 0 0 28.955078 12.666016 A 6.1363636 5.9999999 0 0 0 22.818359 6.6660156 A 6.1363636 5.9999999 0 0 0 21.142578 6.8964844 A 10.227273 10 0 0 0 13.955078 4 z M 3.8828125 16.650391 C 2.1694101 17.558172 1 19.332897 1 21.400391 L 1 22.400391 C 1 20.256246 2.2519588 18.418121 4.0703125 17.544922 A 10.227273 10 0 0 1 3.8828125 16.650391 z M 28.126953 16.654297 A 6.1363636 5.9999999 0 0 1 27.613281 17.400391 C 29.602926 18.20343 31 20.133132 31 22.400391 L 31 21.400391 C 31 19.336317 29.83568 17.56344 28.126953 16.654297 z "
     id="path4316" />
  <path
     style="opacity:0.3;fill:#000000;fill-opacity:1;stroke:none;stroke-width:2;stroke-linecap:round;stroke-linejoin:round;stroke-miterlimit:4;stroke-dasharray:none;stroke-opacity:1"
     d="M 28.929688 12.166016 A 6.1363636 5.9999999 0 0 1 27.613281 15.400391 C 27.791587 15.472357 27.958748 15.564802 28.126953 15.654297 A 6.1363636 5.9999999 0 0 0 28.955078 12.666016 A 6.1363636 5.9999999 0 0 0 28.929688 12.166016 z M 3.7480469 13.396484 A 10.227273 10 0 0 0 3.7265625 14 A 10.227273 10 0 0 0 3.8828125 15.650391 C 3.9463362 15.616735 4.0053078 15.576138 4.0703125 15.544922 A 10.227273 10 0 0 1 3.7480469 13.396484 z M 1 21.599609 L 1 22.599609 C 1 25.591537 3.4305247 28 6.4492188 28 L 25.550781 28 C 28.569476 28 31 25.591537 31 22.599609 L 31 21.599609 C 31 24.591537 28.569476 27 25.550781 27 L 6.4492188 27 C 3.4305247 27 1 24.591537 1 21.599609 z "
     id="path4321" />
</svg>

<?xml version="1.0" encoding="UTF-8" standalone="no"?>
<svg id="svg2817" xmlns:rdf="http://www.w3.org/1999/02/22-rdf-syntax-ns#" xmlns="http://www.w3.org/2000/svg" height="32" width="32" version="1.0" xmlns:cc="http://creativecommons.org/ns#" xmlns:dc="http://purl.org/dc/elements/1.1/">
 <metadata id="metadata57">
  <rdf:RDF>
   <cc:Work rdf:about="">
    <dc:format>image/svg+xml</dc:format>
    <dc:type rdf:resource="http://purl.org/dc/dcmitype/StillImage"/>
    <dc:title/>
   </cc:Work>
  </rdf:RDF>
 </metadata>
 <path id="rect4141" d="m13.955 4a10.227 10 0 0 0 -10.228 10 10.227 10 0 0 0 0.3425 2.544c-1.8183 0.873-3.0695 2.713-3.0695 4.857v1.1979c0 2.992 2.4305 5.401 5.4492 5.401h19.102c3.018 0 5.449-2.409 5.449-5.401v-1.1979c0-2.2673-1.3968-4.197-3.3865-5a6.1364 6 0 0 0 1.341 -3.734 6.1364 6 0 0 0 -6.137 -6.0003 6.1364 6 0 0 0 -1.676 0.2304 10.227 10 0 0 0 -7.187 -2.8971z" fill="#569cde"/>
 <path id="path4326" opacity=".2" d="m16 10a8 8 0 0 0 -8 8 8 8 0 0 0 8 8 8 8 0 0 0 8 -8 8 8 0 0 0 -8 -8zm0 2a6 6 0 0 1 6 6 6 6 0 0 1 -6 6 6 6 0 0 1 -6 -6 6 6 0 0 1 6 -6z"/>
 <path id="path4313" d="m16 9a8 8 0 0 0 -8 8 8 8 0 0 0 8 8 8 8 0 0 0 8 -8 8 8 0 0 0 -8 -8zm0 2a6 6 0 0 1 6 6 6 6 0 0 1 -6 6 6 6 0 0 1 -6 -6 6 6 0 0 1 6 -6z" fill="#aaceee"/>
 <path id="path4328" opacity=".2" d="m16 14a4 4 0 0 0 -4 4 4 4 0 0 0 4 4 4 4 0 0 0 4 -4 4 4 0 0 0 -4 -4z"/>
 <path id="path4139" d="m16 13a4 4 0 0 0 -4 4 4 4 0 0 0 4 4 4 4 0 0 0 4 -4 4 4 0 0 0 -4 -4z" fill="#fff"/>
 <circle id="circle4330" opacity=".2" cx="9.5" cy="9.5" r="1.5"/>
 <circle id="path4161" cy="8.5" cx="9.5" r="1.5" fill="#fff"/>
 <path id="path4316" opacity=".2" d="m13.955 4a10.227 10 0 0 0 -10.228 10 10.227 10 0 0 0 0.021 0.396 10.227 10 0 0 1 10.207 -9.396 10.227 10 0 0 1 7.188 2.8965 6.1364 6 0 0 1 1.675 -0.2305 6.1364 6 0 0 1 6.112 5.5 6.1364 6 0 0 0 0.025 -0.5 6.1364 6 0 0 0 -6.137 -6 6.1364 6 0 0 0 -1.675 0.2305 10.227 10 0 0 0 -7.188 -2.8965zm-10.072 12.65c-1.7134 0.908-2.8828 2.683-2.8828 4.75v1c0-2.144 1.252-3.982 3.0703-4.855a10.227 10 0 0 1 -0.1875 -0.895zm24.244 0.004a6.1364 6 0 0 1 -0.514 0.746c1.99 0.803 3.387 2.733 3.387 5v-1c0-2.064-1.164-3.837-2.873-4.746z" fill="#fff"/>
 <path id="path4321" opacity=".2" d="m28.93 13.166a6.1364 6 0 0 1 -1.3164 3.2344c0.17831 0.07197 0.34547 0.16441 0.51367 0.25391a6.1364 6 0 0 0 0.82812 -2.9883 6.1364 6 0 0 0 -0.02539 -0.5zm-25.182 1.23a10.227 10 0 0 0 -0.0214 0.604 10.227 10 0 0 0 0.15625 1.6504c0.063524-0.03366 0.1225-0.07425 0.1875-0.10547a10.227 10 0 0 1 -0.3223 -2.149zm-2.748 8.204v1c0 2.992 2.4305 5.4 5.4492 5.4h19.102c3.018 0 5.449-2.408 5.449-5.4v-1c0 2.992-2.431 5.4-5.449 5.4h-19.102c-3.0185 0-5.449-2.408-5.449-5.4z"/>
</svg>
